X:128
%%musicspace -13
%%titlespace -25
T:Banish Misfortune
M:6/8
L:1/8
K:Dmix
"D"fed "C"cAG | "D"AdB "C"cAG | "D"F2D DED | "D"FEF "A"GFG | "D"A3 "C"cAG | "D"AAA d2e | 
"D"fed "C"cAG | "A"Add "D"d3 :|]|: "D"f2d d^cd | f2g agf | "C"e2c cBc | e2f gfe | 
"Bm"f2g agf | "A"e2f gfe | "D"fed "A"cAG | "A"Add d3  :|]|: "D"fgf "A"efe | "D"ded "C"cdc | 
"D"A2A "C"BAG | "D"FAF GED | c3 cAG | AGA d2e | "D"fed "C"cAG | "D"Add d3 :|

